src/pos-icons/ethernet-cable.svg

<svg height="24" viewBox="0 0 24 24" width="24" xmlns="http://www.w3.org/2000/svg"><path d="m11 3v4h2v-4zm-3 1v7h8v-7h-2v4h-4v-4zm2 8v10h4v-10z"/></svg>

<?xml version="1.0" encoding="UTF-8"?><!DOCTYPE svg PUBLIC "-//W3C//DTD SVG 1.1//EN" "http://www.w3.org/Graphics/SVG/1.1/DTD/svg11.dtd"><svg xmlns="http://www.w3.org/2000/svg" xmlns:xlink="http://www.w3.org/1999/xlink" version="1.1" id="mdi-ethernet-cable" width="24" height="24" viewBox="0 0 24 24"><path d="M11,3V7H13V3H11M8,4V11H16V4H14V8H10V4H8M10,12V22H14V12H10Z" /></svg>
